frontend/src/logo.svg

<?xml version="1.0" encoding="UTF-8" standalone="no"?>
<svg
   xmlns:dc="http://purl.org/dc/elements/1.1/"
   xmlns:cc="http://creativecommons.org/ns#"
   xmlns:rdf="http://www.w3.org/1999/02/22-rdf-syntax-ns#"
   xmlns:svg="http://www.w3.org/2000/svg"
   xmlns="http://www.w3.org/2000/svg"
   xmlns:sodipodi="http://sodipodi.sourceforge.net/DTD/sodipodi-0.dtd"
   xmlns:inkscape="http://www.inkscape.org/namespaces/inkscape"
   width="100"
   height="100"
   viewBox="0 0 100 100"
   version="1.1"
   id="svg12"
   sodipodi:docname="kaleido_logo_square_primary.svg"
   inkscape:version="0.92.2 5c3e80d, 2017-08-06">
  <metadata
     id="metadata18">
    <rdf:RDF>
      <cc:Work
         rdf:about="">
        <dc:format>image/svg+xml</dc:format>
        <dc:type
           rdf:resource="http://purl.org/dc/dcmitype/StillImage" />
        <dc:title>Letter Copy 4</dc:title>
      </cc:Work>
    </rdf:RDF>
  </metadata>
  <defs
     id="defs16" />
  <sodipodi:namedview
     pagecolor="#ffffff"
     bordercolor="#666666"
     borderopacity="1"
     objecttolerance="10"
     gridtolerance="10"
     guidetolerance="10"
     inkscape:pageopacity="0"
     inkscape:pageshadow="2"
     inkscape:window-width="1421"
     inkscape:window-height="1065"
     id="namedview14"
     showgrid="false"
     inkscape:zoom="1.1253621"
     inkscape:cx="-13.810375"
     inkscape:cy="112.5"
     inkscape:window-x="0"
     inkscape:window-y="0"
     inkscape:window-maximized="0"
     inkscape:current-layer="svg12" />
  <!-- Generator: Sketch 54.1 (76490) - https://sketchapp.com -->
  <title
     id="title2">Letter Copy 4</title>
  <desc
     id="desc4">Created with Sketch.</desc>
  <g
     style="fill:none;fill-rule:evenodd;stroke:none;stroke-width:1"
     transform="translate(58.459288,31.86819)"
     id="Group-4" />
  <path
     style="fill:#202ce0;fill-rule:evenodd;stroke:none;stroke-width:1"
     inkscape:connector-curvature="0"
     id="Fill-12"
     d="m 87.046565,33.686483 v 10.552099 l -30.510561,-17.614885 13.53378,-7.813995 12.581301,7.263613 c 2.71138,1.565204 4.39548,4.482316 4.39548,7.613168 z m -74.093131,22.074936 30.51012,17.615331 -13.53334,7.813995 -12.58174,-7.264058 c -2.71094,-1.564759 -4.39504,-4.482316 -4.39504,-7.613168 z m 20.06978,4.04014 V 43.972297 l 30.68512,17.716413 -13.67627,7.932888 z m 16.97679,-29.404453 16.97678,9.801336 V 56.02815 L 36.291664,38.311738 Z m 0,-21.810877 c 1.54516,0 3.06494,0.406106 4.39548,1.173791 l 9.13785,5.276272 -30.51056,17.615331 -0.0325,-15.608842 12.61425,-7.282761 c 1.33054,-0.767684 2.85032,-1.173791 4.39549,-1.173791 z m -32.65153,17.487531 9.13829,-5.275827 V 56.02815 L 12.953434,48.251559 V 33.686483 c 0,-3.130852 1.6841,-6.047964 4.39504,-7.612723 z m 49.66081,56.883465 -12.6138,7.2832 c -1.33098,0.76813 -2.85121,1.1738 -4.39548,1.1738 -1.54472,0 -3.06451,-0.40567 -4.39549,-1.1738 l -9.13829,-5.27627 30.511,-17.615331 z m 15.641801,-9.030538 -9.138741,5.275828 V 43.971852 l 13.534221,7.777036 v 14.564631 c 0,3.130852 -1.6841,6.048409 -4.39548,7.613168 z m 3.443,-53.816285 L 57.838044,3.796661 c -2.37163,-1.36972 -5.08213,-2.093766 -7.83804,-2.093766 -2.75592,0 -5.46642,0.724046 -7.83849,2.093766 L 13.905474,20.110402 C 9.0709247,22.901941 6.0674247,28.104295 6.0674247,33.686483 v 32.627036 c 0,5.583079 3.0035,10.784987 7.8380493,13.576526 l 28.25604,16.31374 c 2.37252,1.36972 5.08302,2.09332 7.83849,2.09332 2.75502,0 5.46596,-0.7236 7.83804,-2.09332 l 28.256041,-16.31374 c 4.83499,-2.791539 7.83849,-7.993447 7.83849,-13.576526 V 33.686483 c 0,-5.582634 -3.0035,-10.784987 -7.83849,-13.576081 z" />
</svg>

<svg xmlns="http://www.w3.org/2000/svg" width="100" height="100"><path d="M87.047 33.686V44.24L56.536 26.624 70.07 18.81l12.581 7.263a8.815 8.815 0 0 1 4.396 7.613zM12.953 55.761l30.51 17.616L29.93 81.19l-12.582-7.264a8.815 8.815 0 0 1-4.395-7.613zm20.07 4.04V43.973L63.708 61.69l-13.676 7.933zM50 30.398l16.977 9.801v15.83L36.292 38.312Zm0-21.81c1.545 0 3.065.405 4.395 1.173l9.138 5.276-30.51 17.616-.033-15.61L45.605 9.76A8.805 8.805 0 0 1 50 8.586zM17.348 26.073l9.139-5.276v35.23l-13.534-7.776V33.686a8.814 8.814 0 0 1 4.395-7.612zM67.01 82.957 54.395 90.24A8.804 8.804 0 0 1 50 91.414a8.803 8.803 0 0 1-4.395-1.174l-9.139-5.276L66.977 67.35zm15.642-9.03-9.139 5.276V43.972l13.535 7.777v14.565a8.814 8.814 0 0 1-4.396 7.613zm3.443-53.817L57.838 3.797A15.69 15.69 0 0 0 50 1.703c-2.756 0-5.466.724-7.838 2.094L13.905 20.11a15.721 15.721 0 0 0-7.838 13.576v32.628a15.72 15.72 0 0 0 7.838 13.576l28.257 16.314A15.695 15.695 0 0 0 50 98.297c2.755 0 5.466-.723 7.838-2.093L86.094 79.89a15.72 15.72 0 0 0 7.839-13.576V33.686a15.72 15.72 0 0 0-7.839-13.576z" style="fill:#202ce0;fill-rule:evenodd;stroke:none;stroke-width:1"/></svg>
